assets/img/braze_icons/distribute-spacing-horizontal.svg

<svg fill="none" height="24" viewBox="0 0 24 24" width="24" xmlns="http://www.w3.org/2000/svg"><g clip-rule="evenodd" fill="#801ed7" fill-rule="evenodd"><path d="m21 2c.5523 0 1 .44772 1 1v18c0 .5523-.4477 1-1 1s-1-.4477-1-1v-18c0-.55228.4477-1 1-1z"/><path d="m3 2c.55229 0 1 .44772 1 1v18c0 .5523-.44772 1-1 1s-1-.4477-1-1v-18c0-.55228.44772-1 1-1z"/><path d="m11.968 4h.064c.4386-.00001.8171-.00002 1.1304.02135.3298.0225.6597.07201.9857.20701.735.30448 1.3191.88851 1.6235 1.62359.135.32593.1845.65584.2071.98567.0213.31326.0213.69174.0213 1.13039v8.06399c0 .4386 0 .8171-.0213 1.1304-.0226.3298-.0721.6597-.2071.9857-.3044.735-.8885 1.3191-1.6235 1.6235-.326.135-.6559.1845-.9857.207-.3133.0214-.6918.0214-1.1304.0214h-.064c-.4386 0-.8171 0-1.1304-.0214-.3298-.0225-.6597-.072-.98565-.207-.73508-.3044-1.31911-.8885-1.62359-1.6236-.135-.3259-.18451-.6558-.20701-.9856-.02137-.3133-.02136-.6918-.02135-1.1304v-8.06398c-.00001-.43865-.00002-.81714.02135-1.1304.0225-.32983.07201-.65974.20701-.98567.30448-.73508.88851-1.31911 1.62359-1.62359.32595-.135.65585-.18451.98565-.20701.3133-.02137.6918-.02136 1.1304-.02135z"/></g></svg>

<svg width="24" height="24" viewBox="0 0 24 24" fill="none" xmlns="http://www.w3.org/2000/svg">
<path fill-rule="evenodd" clip-rule="evenodd" d="M21 2C21.5523 2 22 2.44772 22 3V21C22 21.5523 21.5523 22 21 22C20.4477 22 20 21.5523 20 21V3C20 2.44772 20.4477 2 21 2Z" fill="#801ED7"/>
<path fill-rule="evenodd" clip-rule="evenodd" d="M3 2C3.55229 2 4 2.44772 4 3L4 21C4 21.5523 3.55228 22 3 22C2.44772 22 2 21.5523 2 21L2 3C2 2.44772 2.44772 2 3 2Z" fill="#801ED7"/>
<path fill-rule="evenodd" clip-rule="evenodd" d="M11.968 4H12.032C12.4706 3.99999 12.8491 3.99998 13.1624 4.02135C13.4922 4.04385 13.8221 4.09336 14.1481 4.22836C14.8831 4.53284 15.4672 5.11687 15.7716 5.85195C15.9066 6.17788 15.9561 6.50779 15.9787 6.83762C16 7.15088 16 7.52936 16 7.96801V16.032C16 16.4706 16 16.8491 15.9787 17.1624C15.9561 17.4922 15.9066 17.8221 15.7716 18.1481C15.4672 18.8831 14.8831 19.4672 14.1481 19.7716C13.8221 19.9066 13.4922 19.9561 13.1624 19.9786C12.8491 20 12.4706 20 12.032 20H11.968C11.5294 20 11.1509 20 10.8376 19.9786C10.5078 19.9561 10.1779 19.9066 9.85195 19.7716C9.11687 19.4672 8.53284 18.8831 8.22836 18.148C8.09336 17.8221 8.04385 17.4922 8.02135 17.1624C7.99998 16.8491 7.99999 16.4706 8 16.032V7.96802C7.99999 7.52937 7.99998 7.15088 8.02135 6.83762C8.04385 6.50779 8.09336 6.17788 8.22836 5.85195C8.53284 5.11687 9.11687 4.53284 9.85195 4.22836C10.1779 4.09336 10.5078 4.04385 10.8376 4.02135C11.1509 3.99998 11.5294 3.99999 11.968 4Z" fill="#801ED7"/>
</svg>
